!!!OTL: Huete du dich!
!!!ARE: Europa, Mitteleuropa, Deutschland
!!!SCT: A0200
!!!YEM: Copyright 1995, estate of Helmut Schaffrath.
**kern
*ICvox
*Ivox
*M3/1
*k[b-]
*F:
{1f
=1
1.f
2f
1a
=2
0g
1a
=3
0b-
1a
=4
0.g
=5
0a
1g
=6
0f}
{1f
=7
1.a
2a
1b-
=8
0cc
1cc
=9
0g
1a
=10
0b-}
{1b-
=11
0a
1b-
=12
0cc
1cc
=13
0g
1a
=14
0.b-
=15
0a
1g
=16
0.f}
=17
{0a
1b-
=18
0cc
1cc
=19
0g
1a
=20
0b-}
{1b-
=21
1a
0g
=22
0f
1b-
=23
1a
0g
=24
0f}
==
!!!AGN: Romanze, Ballade, Lied
!! 68 Lieder. Nuernberg bei Berg und Newber c. 1542 No. 33.
!!!ONB: ESAC (Essen Associative Code) Database: ALTDEU
!!!AMT: simple triple
!!!AIN: vox
!!!EED: Helmut Schaffrath
!!!EEV: 1.0
*-
